X: 29235
T: New House, The
R: reel
M: 4/4
K: Eminor
|:BEGB BEGA|BEBA ADFA|BEGB BEGA|BdBA AB A2|
BEGB BEGA|BEBA ADFA|BEGB BEGA|BdBA AB A2:|
|:edef gf e2|efga ag f2|edef gfeb|bagf fg f2|
edef gf e2|efga ag f2|edef gfeb|bagf fg f2:|

